pix_core/t/editstring.svg

<!DOCTYPE svg PUBLIC "-//W3C//DTD SVG 1.1//EN" "http://www.w3.org/Graphics/SVG/1.1/DTD/svg11.dtd" [
	<!ENTITY ns_flows "http://ns.adobe.com/Flows/1.0/">
]><svg xmlns="http://www.w3.org/2000/svg" width="12" height="12" viewBox="0 0 12 12" preserveAspectRatio="xMinYMid meet" overflow="visible"><path d="M5.2 11h6.8v1h-7.8l1-1zm1.4-8.4l-6.6 6.5v2.9h2.8l6.6-6.6-2.8-2.8zm4.8.8l-1 1-2.8-2.8 1-1c.8-.8 2.1-.8 2.8 0 .8.8.8 2 0 2.8z" fill="#1F4D87"/></svg>

<?xml version="1.0" encoding="utf-8"?>
<!-- Generator: Adobe Illustrator 15.1.0, SVG Export Plug-In  -->
<!DOCTYPE svg PUBLIC "-//W3C//DTD SVG 1.1//EN" "http://www.w3.org/Graphics/SVG/1.1/DTD/svg11.dtd" [
	<!ENTITY ns_flows "http://ns.adobe.com/Flows/1.0/">
]>
<svg version="1.1"
	 xmlns="http://www.w3.org/2000/svg" xmlns:xlink="http://www.w3.org/1999/xlink" xmlns:a="http://ns.adobe.com/AdobeSVGViewerExtensions/3.0/"
	 x="0px" y="0px" width="12px" height="12px" viewBox="0 0 12 12" style="overflow:visible;enable-background:new 0 0 12 12;"
	 xml:space="preserve" preserveAspectRatio="xMinYMid meet">
<defs>
</defs>
<path style="fill:#1F4D87;" d="M5.2,11H12v1H4.2L5.2,11z M6.6,2.6L0,9.1l0,0h0V12h2.8l0,0l0,0l0,0l6.6-6.6L6.6,2.6z M11.4,3.4l-1,1
	L7.6,1.6l1-1c0.8-0.8,2.1-0.8,2.8,0v0C12.2,1.4,12.2,2.6,11.4,3.4z"/>
</svg>
